icons/home-circle-ch.svg

<svg width="24" height="24" viewBox="0 0 24 24" fill="none" xmlns="http://www.w3.org/2000/svg">
<path fill-rule="evenodd" clip-rule="evenodd" d="M17.5963 3.25C17.5963 2.83579 17.2605 2.5 16.8463 2.5C16.4321 2.5 16.0963 2.83579 16.0963 3.25V5.4188L14.2448 3.78946C12.9606 2.63674 11.0321 2.63675 9.74796 3.7895L4.73298 8.20268L4.71607 8.21959C3.90582 9.02984 3.29639 10.2118 3.29639 11.4499V18.5499C3.29639 20.1642 4.6322 21.4999 6.2464 21.4999H10.0353L10.0464 21.5L10.0575 21.4999H14.0353L14.0464 21.5L14.0575 21.4999H17.7464C19.4116 21.4999 20.8167 20.2022 20.6964 18.5211V11.4499C20.6964 10.254 20.2178 9.04131 19.2412 8.1863L19.2403 8.18549L17.5963 6.7388V3.25ZM13.2964 16.15V19.9999H10.7964V16.15C10.7964 15.8657 10.8456 15.641 10.9002 15.5H13.1926C13.2472 15.641 13.2964 15.8657 13.2964 16.15ZM14.7964 16.15V19.9999H17.7464C18.6702 19.9999 19.2576 19.3149 19.199 18.6122L19.1964 18.5811V11.4499C19.1964 10.6462 18.8753 9.8593 18.2525 9.31435L18.2509 9.31296L13.2447 4.9074C12.5299 4.2641 11.4629 4.2641 10.7481 4.9074L10.7419 4.913L5.7607 9.29638C5.17991 9.88487 4.79639 10.695 4.79639 11.4499V18.5499C4.79639 19.3357 5.4606 19.9999 6.2464 19.9999H9.29639V16.15C9.29639 15.6646 9.38614 15.2063 9.54995 14.8422C9.63112 14.6619 9.7443 14.4739 9.90173 14.32C10.0572 14.168 10.31 14 10.6464 14H13.4464C13.7828 14 14.0356 14.168 14.1911 14.32C14.3485 14.474 14.4617 14.6619 14.5428 14.8423C14.7066 15.2063 14.7964 15.6646 14.7964 16.15ZM10.7964 9.75C10.7964 9.05964 11.356 8.5 12.0464 8.5C12.7367 8.5 13.2964 9.05964 13.2964 9.75C13.2964 10.4404 12.7367 11 12.0464 11C11.356 11 10.7964 10.4404 10.7964 9.75ZM12.0464 7C10.5276 7 9.29639 8.23122 9.29639 9.75C9.29639 11.2688 10.5276 12.5 12.0464 12.5C13.5652 12.5 14.7964 11.2688 14.7964 9.75C14.7964 8.23122 13.5652 7 12.0464 7Z" fill="black"/>
</svg>

<svg xmlns="http://www.w3.org/2000/svg" fill="none" viewBox="0 0 24 24">
  <path fill="#000" fill-rule="evenodd" d="M17.596 3.25a.75.75 0 0 0-1.5 0v2.169l-1.851-1.63a3.356 3.356 0 0 0-4.497 0L4.733 8.204l-.017.017c-.81.81-1.42 1.992-1.42 3.23v7.1a2.97 2.97 0 0 0 2.95 2.95h11.501c1.665 0 3.07-1.298 2.95-2.979V11.45c0-1.196-.48-2.409-1.456-3.264l-1.645-1.447V3.25Zm-4.3 12.9V20h-2.5v-3.85c0-.284.05-.509.104-.65h2.293c.054.141.103.366.103.65Zm1.5 0V20h2.95c.924 0 1.512-.685 1.453-1.388l-.003-.03V11.45c0-.804-.32-1.59-.944-2.136l-.001-.001-5.006-4.406a1.856 1.856 0 0 0-2.497 0l-.006.006L5.76 9.296c-.581.589-.965 1.399-.965 2.154v7.1c0 .786.665 1.45 1.45 1.45h3.05v-3.85c0-.485.09-.944.254-1.308a1.7 1.7 0 0 1 .352-.522c.155-.152.408-.32.744-.32h2.8c.337 0 .59.168.745.32.157.154.27.342.352.522.164.364.253.823.253 1.308Zm-4-6.4a1.25 1.25 0 1 1 2.5 0 1.25 1.25 0 0 1-2.5 0ZM12.046 7a2.75 2.75 0 1 0 0 5.5 2.75 2.75 0 0 0 0-5.5Z" clip-rule="evenodd"/>
</svg>
